img/card5.svg

<svg width="61" height="91" viewBox="0 0 61 91" fill="none" xmlns="http://www.w3.org/2000/svg">
<rect x="0.392578" y="0.0498047" width="60.057" height="90.0855" rx="4.61977" fill="white"/>
<mask id="mask0_1592_9465" style="mask-type:alpha" maskUnits="userSpaceOnUse" x="1" y="1" width="58" height="87">
<path d="M11.2824 2.3597H53.5203C55.7528 2.3597 57.5626 4.1695 57.5626 6.402L57.5625 70.5625C57.5625 71.8044 56.5557 72.8112 55.3138 72.8112C53.6623 72.8112 52.249 73.9969 51.962 75.6233L50.8353 82.008C50.6771 82.9045 51.0881 83.8058 51.8687 84.2741C52.7655 84.8122 52.3997 86.1884 51.3541 86.2102L6.4077 87.1466C4.09103 87.1949 2.20803 85.2897 2.28334 82.9738L4.3241 20.222C4.37573 18.6343 5.67773 17.374 7.26623 17.374C9.52984 17.374 11.3649 15.5389 11.3649 13.2753L11.3649 8.21691C11.3649 7.25616 10.9125 6.35148 10.1439 5.77503C8.68518 4.68097 9.45894 2.3597 11.2824 2.3597Z" fill="#C4C4C4" stroke="black" stroke-width="1.15494"/>
</mask>
<g mask="url(#mask0_1592_9465)">
<rect x="6.1678" y="5.24715" width="49.6625" height="79.691" rx="4.0423" stroke="black" stroke-width="1.15494"/>
</g>
<path d="M16.6963 19.6839H11.8157C13.7571 18.5462 14.1011 17.6245 14.256 15.8054L11.0023 17.3568C9.22266 16.1671 9.12927 15.4889 11.0023 14.254L14.256 15.8054L12.629 11.9269C13.6595 9.91289 14.6625 9.98775 15.8828 11.9269L14.256 15.8054L17.9165 14.254C19.3434 15.4658 19.0275 16.145 17.9165 17.3568L14.256 15.8054C14.5519 17.6248 14.9741 18.5255 16.6963 19.6839Z" fill="black"/>
<path d="M14.256 15.8054C14.1011 17.6245 13.7571 18.5462 11.8157 19.6839H16.6963C14.9741 18.5255 14.5519 17.6248 14.256 15.8054ZM14.256 15.8054L11.0023 17.3568C9.22266 16.1671 9.12927 15.4889 11.0023 14.254L14.256 15.8054ZM14.256 15.8054L15.8828 11.9269C14.6625 9.98775 13.6595 9.91289 12.629 11.9269L14.256 15.8054ZM14.256 15.8054L17.9165 14.254C19.3434 15.4658 19.0275 16.145 17.9165 17.3568L14.256 15.8054Z" stroke="black" stroke-width="1.15494"/>
<path d="M21.5877 30.0783H17.3172C19.0159 29.0828 19.3169 28.2763 19.4525 26.6846L16.6055 28.042C15.0483 27.001 14.9666 26.4076 16.6055 25.3271L19.4525 26.6846L18.0289 23.2909C18.9305 21.5286 19.8081 21.5941 20.8759 23.2909L19.4525 26.6846L22.6554 25.3271C23.9039 26.3874 23.6275 26.9817 22.6554 28.042L19.4525 26.6846C19.7114 28.2766 20.0808 29.0647 21.5877 30.0783Z" fill="black"/>
<path d="M19.4525 26.6846C19.3169 28.2763 19.0159 29.0828 17.3172 30.0783H21.5877C20.0808 29.0647 19.7114 28.2766 19.4525 26.6846ZM19.4525 26.6846L16.6055 28.042C15.0483 27.001 14.9666 26.4076 16.6055 25.3271L19.4525 26.6846ZM19.4525 26.6846L20.8759 23.2909C19.8081 21.5941 18.9305 21.5286 18.0289 23.2909L19.4525 26.6846ZM19.4525 26.6846L22.6554 25.3271C23.9039 26.3874 23.6275 26.9817 22.6554 28.042L19.4525 26.6846Z" stroke="black" stroke-width="1.15494"/>
<path d="M40.4093 30.0783H44.6799C42.9811 29.0828 42.6801 28.2763 42.5446 26.6846L45.3916 28.042C46.9488 27.001 47.0305 26.4076 45.3916 25.3271L42.5446 26.6846L43.9682 23.2909C43.0665 21.5286 42.1889 21.5941 41.1212 23.2909L42.5446 26.6846L39.3417 25.3271C38.0932 26.3874 38.3695 26.9817 39.3417 28.042L42.5446 26.6846C42.2857 28.2766 41.9163 29.0647 40.4093 30.0783Z" fill="black"/>
<path d="M42.5446 26.6846C42.6801 28.2763 42.9811 29.0828 44.6799 30.0783H40.4093C41.9163 29.0647 42.2857 28.2766 42.5446 26.6846ZM42.5446 26.6846L45.3916 28.042C46.9488 27.001 47.0305 26.4076 45.3916 25.3271L42.5446 26.6846ZM42.5446 26.6846L41.1212 23.2909C42.1889 21.5941 43.0665 21.5286 43.9682 23.2909L42.5446 26.6846ZM42.5446 26.6846L39.3417 25.3271C38.0932 26.3874 38.3695 26.9817 39.3417 28.042L42.5446 26.6846Z" stroke="black" stroke-width="1.15494"/>
<path d="M40.4093 60.1068L44.6799 60.1068C42.9811 61.1022 42.6801 61.9087 42.5446 63.5005L45.3916 62.143C46.9488 63.184 47.0305 63.7775 45.3916 64.858L42.5446 63.5005L43.9682 66.8941C43.0665 68.6564 42.1889 68.5909 41.1212 66.8941L42.5446 63.5005L39.3417 64.858C38.0932 63.7976 38.3695 63.2034 39.3417 62.143L42.5446 63.5005C42.2857 61.9085 41.9163 61.1204 40.4093 60.1068Z" fill="black"/>
<path d="M42.5446 63.5005C42.6801 61.9087 42.9811 61.1022 44.6799 60.1068L40.4093 60.1068C41.9163 61.1204 42.2857 61.9085 42.5446 63.5005ZM42.5446 63.5005L45.3916 62.143C46.9488 63.184 47.0305 63.7775 45.3916 64.858L42.5446 63.5005ZM42.5446 63.5005L41.1212 66.8941C42.1889 68.5909 43.0665 68.6564 43.9682 66.8941L42.5446 63.5005ZM42.5446 63.5005L39.3417 64.858C38.0932 63.7976 38.3695 63.2034 39.3417 62.143L42.5446 63.5005Z" stroke="black" stroke-width="1.15494"/>
<path d="M21.5877 60.1068L17.3172 60.1068C19.0159 61.1022 19.3169 61.9087 19.4525 63.5005L16.6055 62.143C15.0483 63.184 14.9666 63.7775 16.6055 64.858L19.4525 63.5005L18.0289 66.8941C18.9305 68.6564 19.8081 68.5909 20.8759 66.8941L19.4525 63.5005L22.6554 64.858C23.9039 63.7976 23.6276 63.2034 22.6554 62.143L19.4525 63.5005C19.7114 61.9085 20.0808 61.1204 21.5877 60.1068Z" fill="black"/>
<path d="M19.4525 63.5005C19.3169 61.9087 19.0159 61.1022 17.3172 60.1068L21.5877 60.1068C20.0808 61.1204 19.7114 61.9085 19.4525 63.5005ZM19.4525 63.5005L16.6055 62.143C15.0483 63.184 14.9666 63.7775 16.6055 64.858L19.4525 63.5005ZM19.4525 63.5005L20.8759 66.8941C19.8081 68.5909 18.9305 68.6564 18.0289 66.8941L19.4525 63.5005ZM19.4525 63.5005L22.6554 64.858C23.9039 63.7976 23.6276 63.2034 22.6554 62.143L19.4525 63.5005Z" stroke="black" stroke-width="1.15494"/>
<path d="M44.146 70.5012L49.0266 70.5012C47.0852 71.6388 46.7412 72.5605 46.5863 74.3797L49.84 72.8283C51.6196 74.018 51.713 74.6962 49.84 75.9311L46.5863 74.3797L48.2133 78.2581C47.1828 80.2722 46.1798 80.1973 44.9595 78.2581L46.5863 74.3797L42.9258 75.9311C41.4989 74.7193 41.8148 74.0401 42.9258 72.8283L46.5863 74.3797C46.2903 72.5602 45.8682 71.6595 44.146 70.5012Z" fill="black"/>
<path d="M46.5863 74.3797C46.7412 72.5605 47.0852 71.6388 49.0266 70.5012L44.146 70.5012C45.8682 71.6595 46.2903 72.5602 46.5863 74.3797ZM46.5863 74.3797L49.84 72.8283C51.6196 74.018 51.713 74.6962 49.84 75.9311L46.5863 74.3797ZM46.5863 74.3797L44.9595 78.2581C46.1798 80.1973 47.1828 80.2722 48.2133 78.2581L46.5863 74.3797ZM46.5863 74.3797L42.9258 75.9311C41.4989 74.7193 41.8148 74.0401 42.9258 72.8283L46.5863 74.3797Z" stroke="black" stroke-width="1.15494"/>
<path d="M5.72714 14.6264C5.41698 14.6264 5.11922 14.5829 4.83387 14.4961C4.54852 14.4134 4.29418 14.2872 4.07086 14.1177C3.85168 13.9481 3.67592 13.7352 3.54358 13.4787C3.41538 13.2223 3.35128 12.9225 3.35128 12.5793C3.35128 12.3146 3.39057 12.0933 3.46914 11.9155C3.55185 11.7377 3.65317 11.595 3.7731 11.4875C3.89304 11.38 4.02124 11.3055 4.15771 11.2642C4.29418 11.2187 4.42032 11.1959 4.53611 11.1959C4.65604 11.1959 4.78011 11.2145 4.90831 11.2518C5.04065 11.289 5.15851 11.351 5.2619 11.4379C5.36942 11.5247 5.45627 11.6426 5.52244 11.7915C5.59274 11.9362 5.62789 12.1182 5.62789 12.3373C5.61962 12.4655 5.59274 12.5855 5.54725 12.6971C5.50589 12.7923 5.44179 12.8874 5.35495 12.9825C5.2681 13.0735 5.1461 13.1396 4.98895 13.181C5.10888 13.3133 5.24535 13.4167 5.39837 13.4912C5.55552 13.5615 5.68786 13.5966 5.79538 13.5966C5.91118 13.5966 6.03731 13.5635 6.17378 13.4974C6.31439 13.4271 6.44466 13.3154 6.56459 13.1624C6.68452 13.0094 6.78377 12.8129 6.86235 12.5731C6.94506 12.3332 6.98642 12.0396 6.98642 11.6922C6.98642 11.4689 6.96574 11.2642 6.92438 11.0781C6.88716 10.8878 6.81893 10.7141 6.71968 10.557C6.62042 10.3998 6.48602 10.2572 6.31646 10.129C6.15104 9.99663 5.94219 9.87463 5.68993 9.76297C5.60308 9.72575 5.5059 9.69267 5.39837 9.66372C5.29498 9.63063 5.18539 9.60375 5.0696 9.58307C4.9538 9.5624 4.83387 9.54379 4.70981 9.52724C4.58987 9.5107 4.47408 9.4983 4.36242 9.49002C4.09775 9.46935 3.8248 9.45694 3.54358 9.4528L3.81033 5.74323C3.90131 5.71842 4.03158 5.69567 4.20114 5.67499C4.37483 5.65018 4.5692 5.62743 4.78425 5.60676C4.9993 5.58608 5.22882 5.56747 5.47281 5.55093C5.71681 5.53438 5.95874 5.51784 6.1986 5.5013C6.76103 5.46408 7.37103 5.431 8.02858 5.40205L7.96654 6.86603C7.90864 6.86603 7.8218 6.86603 7.706 6.86603C7.59021 6.86189 7.45787 6.85982 7.30899 6.85982C7.16011 6.85569 6.99883 6.85362 6.82513 6.85362C6.65558 6.84948 6.48602 6.84535 6.31646 6.84121C5.91532 6.83294 5.47902 6.8226 5.00757 6.8102L4.91452 8.23696C5.08821 8.2535 5.25363 8.26797 5.41078 8.28038C5.56793 8.29279 5.72301 8.31553 5.87603 8.34862C6.02904 8.37757 6.18412 8.42099 6.34128 8.47889C6.49843 8.53678 6.66178 8.61743 6.83134 8.72081C7.36896 9.05166 7.76597 9.43213 8.02237 9.86222C8.27877 10.2923 8.40697 10.7927 8.40697 11.3634C8.40697 11.7646 8.34287 12.1595 8.21467 12.5483C8.08647 12.937 7.9045 13.2864 7.66878 13.5966C7.43719 13.9026 7.15597 14.1508 6.82513 14.341C6.49429 14.5312 6.12829 14.6264 5.72714 14.6264Z" fill="black"/>
<path d="M55.1151 75.5587C55.4253 75.5587 55.7231 75.6021 56.0084 75.689C56.2938 75.7717 56.5481 75.8978 56.7714 76.0674C56.9906 76.2369 57.1664 76.4499 57.2987 76.7063C57.4269 76.9627 57.491 77.2625 57.491 77.6058C57.491 77.8705 57.4517 78.0917 57.3731 78.2695C57.2904 78.4474 57.1891 78.59 57.0692 78.6976C56.9493 78.8051 56.821 78.8795 56.6846 78.9209C56.5481 78.9664 56.422 78.9891 56.3062 78.9891C56.1862 78.9891 56.0622 78.9705 55.934 78.9333C55.8016 78.8961 55.6838 78.834 55.5804 78.7472C55.4729 78.6603 55.386 78.5425 55.3198 78.3936C55.2495 78.2489 55.2144 78.0669 55.2144 77.8477C55.2227 77.7195 55.2495 77.5996 55.295 77.4879C55.3364 77.3928 55.4005 77.2977 55.4873 77.2026C55.5742 77.1116 55.6962 77.0454 55.8533 77.0041C55.7334 76.8717 55.5969 76.7683 55.4439 76.6939C55.2868 76.6236 55.1544 76.5884 55.0469 76.5884C54.9311 76.5884 54.805 76.6215 54.6685 76.6877C54.5279 76.758 54.3976 76.8697 54.2777 77.0227C54.1578 77.1757 54.0585 77.3721 53.9799 77.612C53.8972 77.8519 53.8559 78.1455 53.8559 78.4929C53.8559 78.7162 53.8765 78.9209 53.9179 79.107C53.9551 79.2972 54.0234 79.4709 54.1226 79.6281C54.2219 79.7852 54.3563 79.9279 54.5258 80.0561C54.6912 80.1884 54.9001 80.3104 55.1524 80.4221C55.2392 80.4593 55.3364 80.4924 55.4439 80.5213C55.5473 80.5544 55.6569 80.5813 55.7727 80.602C55.8885 80.6227 56.0084 80.6413 56.1325 80.6578C56.2524 80.6744 56.3682 80.6868 56.4799 80.695C56.7445 80.7157 57.0175 80.7281 57.2987 80.7323L57.032 84.4418C56.941 84.4666 56.8107 84.4894 56.6411 84.5101C56.4675 84.5349 56.2731 84.5576 56.058 84.5783C55.843 84.599 55.6135 84.6176 55.3695 84.6341C55.1255 84.6507 54.8835 84.6672 54.6437 84.6838C54.0813 84.721 53.4713 84.7541 52.8137 84.783L52.8757 83.319C52.9336 83.319 53.0205 83.319 53.1363 83.319C53.2521 83.3232 53.3844 83.3252 53.5333 83.3252C53.6822 83.3294 53.8435 83.3314 54.0172 83.3314C54.1867 83.3356 54.3563 83.3397 54.5258 83.3438C54.927 83.3521 55.3633 83.3625 55.8347 83.3749L55.9278 81.9481C55.7541 81.9316 55.5887 81.9171 55.4315 81.9047C55.2744 81.8923 55.1193 81.8695 54.9663 81.8364C54.8132 81.8075 54.6582 81.7641 54.501 81.7062C54.3439 81.6483 54.1805 81.5676 54.0109 81.4642C53.4733 81.1334 53.0763 80.7529 52.8199 80.3228C52.5635 79.8927 52.4353 79.3923 52.4353 78.8216C52.4353 78.4205 52.4994 78.0255 52.6276 77.6368C52.7558 77.2481 52.9378 76.8986 53.1735 76.5884C53.4051 76.2824 53.6863 76.0343 54.0172 75.844C54.348 75.6538 54.714 75.5587 55.1151 75.5587Z" fill="black"/>
<path d="M32.5935 50.8673H27.1028C29.2869 49.4453 29.6739 48.2931 29.8481 46.0192L26.1877 47.9584C24.1856 46.4713 24.0805 45.6235 26.1877 44.0799L29.8481 46.0192L28.0178 41.1711C29.1771 38.6536 30.3054 38.7471 31.6782 41.1711L29.8481 46.0192L33.9661 44.0799C35.5714 45.5947 35.2161 46.4436 33.9661 47.9584L29.8481 46.0192C30.181 48.2935 30.656 49.4194 32.5935 50.8673Z" fill="black"/>
<path d="M29.8481 46.0192C29.6739 48.2931 29.2869 49.4453 27.1028 50.8673H32.5935C30.656 49.4194 30.181 48.2935 29.8481 46.0192ZM29.8481 46.0192L26.1877 47.9584C24.1856 46.4713 24.0805 45.6235 26.1877 44.0799L29.8481 46.0192ZM29.8481 46.0192L31.6782 41.1711C30.3054 38.7471 29.1771 38.6536 28.0178 41.1711L29.8481 46.0192ZM29.8481 46.0192L33.9661 44.0799C35.5714 45.5947 35.2161 46.4436 33.9661 47.9584L29.8481 46.0192Z" stroke="black" stroke-width="1.15494"/>
</svg>

<svg width="61" height="91" fill="none" xmlns="http://www.w3.org/2000/svg"><rect x=".39" y=".05" width="60.06" height="90.09" rx="4.62" fill="#fff"/><mask id="a" style="mask-type:alpha" maskUnits="userSpaceOnUse" x="1" y="1" width="58" height="87"><path d="M11.28 2.36h42.24a4.04 4.04 0 0 1 4.04 4.04v64.16c0 1.24-1 2.25-2.25 2.25a3.4 3.4 0 0 0-3.35 2.81l-1.12 6.39c-.16.9.25 1.8 1.03 2.26.9.54.53 1.92-.52 1.94l-44.94.94a4.04 4.04 0 0 1-4.13-4.18l2.04-62.75a2.94 2.94 0 0 1 2.95-2.85 4.1 4.1 0 0 0 4.1-4.1V8.23c0-.96-.46-1.87-1.23-2.44a1.9 1.9 0 0 1 1.14-3.42Z" fill="#C4C4C4" stroke="#000" stroke-width="1.15"/></mask><g mask="url(#a)"><rect x="6.17" y="5.25" width="49.66" height="79.69" rx="4.04" stroke="#000" stroke-width="1.15"/></g><path d="M16.7 19.68h-4.88c1.94-1.13 2.28-2.06 2.44-3.87L11 17.36c-1.78-1.2-1.87-1.87 0-3.1l3.26 1.55-1.63-3.88c1.03-2.02 2.03-1.94 3.25 0l-1.62 3.88 3.66-1.56c1.42 1.22 1.1 1.9 0 3.1l-3.66-1.54c.3 1.81.71 2.72 2.44 3.87Z" fill="#000"/><path d="M14.26 15.8c-.16 1.82-.5 2.75-2.44 3.88h4.88c-1.73-1.15-2.15-2.06-2.44-3.87Zm0 0L11 17.37c-1.78-1.2-1.87-1.87 0-3.1l3.26 1.55Zm0 0 1.62-3.87c-1.22-1.94-2.22-2.02-3.25 0l1.63 3.88Zm0 0 3.66-1.55c1.42 1.22 1.1 1.9 0 3.1l-3.66-1.54Z" stroke="#000" stroke-width="1.15"/><path d="M21.59 30.08h-4.27c1.7-1 2-1.8 2.13-3.4l-2.84 1.36c-1.56-1.04-1.64-1.63 0-2.71l2.84 1.35-1.42-3.39c.9-1.76 1.78-1.7 2.85 0l-1.43 3.4 3.2-1.36c1.25 1.06.98 1.65 0 2.71l-3.2-1.36c.26 1.6.63 2.38 2.14 3.4Z" fill="#000"/><path d="M19.45 26.68c-.13 1.6-.43 2.4-2.13 3.4h4.27c-1.5-1.02-1.88-1.8-2.14-3.4Zm0 0-2.84 1.36c-1.56-1.04-1.64-1.63 0-2.71l2.84 1.35Zm0 0 1.43-3.39c-1.07-1.7-1.95-1.76-2.85 0l1.42 3.4Zm0 0 3.2-1.35c1.25 1.06.98 1.65 0 2.71l-3.2-1.36Z" stroke="#000" stroke-width="1.15"/><path d="M40.4 30.08h4.28c-1.7-1-2-1.8-2.14-3.4l2.85 1.36c1.56-1.04 1.64-1.63 0-2.71l-2.85 1.35 1.43-3.39c-.9-1.76-1.78-1.7-2.85 0l1.42 3.4-3.2-1.36c-1.25 1.06-.97 1.65 0 2.71l3.2-1.36c-.25 1.6-.62 2.38-2.13 3.4Z" fill="#000"/><path d="M42.54 26.68c.14 1.6.44 2.4 2.14 3.4h-4.27c1.5-1.02 1.88-1.8 2.13-3.4Zm0 0 2.85 1.36c1.56-1.04 1.64-1.63 0-2.71l-2.85 1.35Zm0 0-1.42-3.39c1.07-1.7 1.95-1.76 2.85 0l-1.43 3.4Zm0 0-3.2-1.35c-1.25 1.06-.97 1.65 0 2.71l3.2-1.36Z" stroke="#000" stroke-width="1.15"/><path d="M40.4 60.1h4.28c-1.7 1-2 1.8-2.14 3.4l2.85-1.36c1.56 1.04 1.64 1.64 0 2.72l-2.85-1.36 1.43 3.4c-.9 1.76-1.78 1.7-2.85 0l1.42-3.4-3.2 1.36c-1.25-1.06-.97-1.66 0-2.72l3.2 1.36c-.25-1.6-.62-2.38-2.13-3.4Z" fill="#000"/><path d="M42.54 63.5c.14-1.6.44-2.4 2.14-3.4h-4.27c1.5 1.02 1.88 1.8 2.13 3.4Zm0 0 2.85-1.36c1.56 1.04 1.64 1.64 0 2.72l-2.85-1.36Zm0 0-1.42 3.4c1.07 1.7 1.95 1.76 2.85 0l-1.43-3.4Zm0 0-3.2 1.36c-1.25-1.06-.97-1.66 0-2.72l3.2 1.36Z" stroke="#000" stroke-width="1.15"/><path d="M21.59 60.1h-4.27c1.7 1 2 1.8 2.13 3.4l-2.84-1.36c-1.56 1.04-1.64 1.64 0 2.72l2.84-1.36-1.42 3.4c.9 1.76 1.78 1.7 2.85 0l-1.43-3.4 3.2 1.36c1.25-1.06.98-1.66 0-2.72l-3.2 1.36c.26-1.6.63-2.38 2.14-3.4Z" fill="#000"/><path d="M19.45 63.5c-.13-1.6-.43-2.4-2.13-3.4h4.27c-1.5 1.02-1.88 1.8-2.14 3.4Zm0 0-2.84-1.36c-1.56 1.04-1.64 1.64 0 2.72l2.84-1.36Zm0 0 1.43 3.4c-1.07 1.7-1.95 1.76-2.85 0l1.42-3.4Zm0 0 3.2 1.36c1.25-1.06.98-1.66 0-2.72l-3.2 1.36Z" stroke="#000" stroke-width="1.15"/><path d="M44.15 70.5h4.88c-1.94 1.14-2.29 2.06-2.44 3.88l3.25-1.55c1.78 1.19 1.87 1.87 0 3.1l-3.25-1.55 1.62 3.88c-1.03 2.01-2.03 1.94-3.25 0l1.63-3.88-3.66 1.55c-1.43-1.21-1.12-1.89 0-3.1l3.66 1.55c-.3-1.82-.72-2.72-2.44-3.88Z" fill="#000"/><path d="M46.59 74.38c.15-1.82.5-2.74 2.44-3.88h-4.88c1.72 1.16 2.14 2.06 2.44 3.88Zm0 0 3.25-1.55c1.78 1.19 1.87 1.87 0 3.1l-3.25-1.55Zm0 0-1.63 3.88c1.22 1.94 2.22 2.01 3.25 0l-1.62-3.88Zm0 0-3.66 1.55c-1.43-1.21-1.12-1.89 0-3.1l3.66 1.55Z" stroke="#000" stroke-width="1.15"/><path d="M5.73 14.63c-.31 0-.61-.05-.9-.13-.28-.09-.54-.21-.76-.38a1.9 1.9 0 0 1-.53-.64c-.12-.26-.19-.56-.19-.9 0-.27.04-.49.12-.66.08-.18.18-.32.3-.43a1.2 1.2 0 0 1 1.14-.24.94.94 0 0 1 .61.54 1.14 1.14 0 0 1 .02.9.76.76 0 0 1-.56.48c.13.14.27.25.42.32.16.07.29.1.4.1.11 0 .24-.03.37-.1.14-.06.27-.17.4-.33.11-.15.21-.35.3-.59.08-.24.12-.53.12-.88 0-.22-.02-.43-.07-.61a1.5 1.5 0 0 0-.6-.95 2.84 2.84 0 0 0-1.61-.6 12.97 12.97 0 0 0-1.17-.07l.27-3.72.4-.07a12.85 12.85 0 0 1 1.26-.12l.73-.05 1.83-.1-.06 1.47H7.7a11.24 11.24 0 0 0-.88-.02h-.51L5 6.8l-.1 1.43.5.04a3.5 3.5 0 0 1 1.42.44c.54.33.94.71 1.2 1.14.25.43.38.93.38 1.5a3.76 3.76 0 0 1-.74 2.24c-.23.3-.51.55-.84.74-.34.2-.7.29-1.1.29ZM55.12 75.56c.3 0 .6.04.89.13.28.08.54.2.76.38.22.17.4.38.53.64.13.25.2.55.2.9 0 .26-.05.48-.13.66a1.3 1.3 0 0 1-.3.43 1.2 1.2 0 0 1-1.14.24.94.94 0 0 1-.61-.55 1.14 1.14 0 0 1-.02-.9c.04-.1.1-.2.19-.29.08-.09.2-.15.36-.2a1.34 1.34 0 0 0-.4-.3c-.16-.08-.3-.11-.4-.11a.87.87 0 0 0-.38.1c-.14.07-.27.18-.4.33-.11.16-.21.35-.29.6-.08.23-.12.53-.12.87 0 .23.02.43.06.62a1.51 1.51 0 0 0 .6.95 2.85 2.85 0 0 0 1.61.6l.35.03c.26.03.54.04.82.04l-.27 3.71a12.88 12.88 0 0 1-1.66.2l-.73.04-1.83.1.07-1.46h.26a11.1 11.1 0 0 0 .88.01l.5.01 1.31.03.1-1.42-.5-.05a3.5 3.5 0 0 1-1.42-.44 3.44 3.44 0 0 1-1.19-1.14 2.88 2.88 0 0 1-.38-1.5 3.76 3.76 0 0 1 .73-2.23c.24-.3.52-.56.85-.75.33-.19.7-.28 1.1-.28ZM32.6 50.87h-5.5c2.19-1.42 2.57-2.58 2.75-4.85l-3.66 1.94c-2-1.49-2.11-2.34 0-3.88l3.66 1.94-1.83-4.85c1.16-2.52 2.29-2.42 3.66 0l-1.83 4.85 4.12-1.94c1.6 1.51 1.25 2.36 0 3.88l-4.12-1.94c.33 2.27.8 3.4 2.74 4.85Z" fill="#000"/><path d="M29.85 46.02c-.18 2.27-.56 3.43-2.75 4.85h5.5c-1.94-1.45-2.42-2.58-2.75-4.85Zm0 0-3.66 1.94c-2-1.49-2.11-2.34 0-3.88l3.66 1.94Zm0 0 1.83-4.85c-1.37-2.42-2.5-2.52-3.66 0l1.83 4.85Zm0 0 4.12-1.94c1.6 1.51 1.25 2.36 0 3.88l-4.12-1.94Z" stroke="#000" stroke-width="1.15"/></svg>
